svg/24/text-next.svg

<svg width="24" height="24" viewBox="0 0 24 24" fill="currentColor" xmlns="http://www.w3.org/2000/svg"><path d="M3 3.75C3 3.33579 3.33579 3 3.75 3H20.25C20.6642 3 21 3.33579 21 3.75C21 4.16421 20.6642 4.5 20.25 4.5H3.75C3.33579 4.5 3 4.16421 3 3.75Z"/><path d="M3 9.25C3 8.83579 3.33579 8.5 3.75 8.5H12.25C12.6642 8.5 13 8.83579 13 9.25C13 9.66421 12.6642 10 12.25 10H3.75C3.33579 10 3 9.66421 3 9.25Z"/><path d="M3.75 14C3.33579 14 3 14.3358 3 14.75C3 15.1642 3.33579 15.5 3.75 15.5H11.3135C11.4858 14.9665 11.7253 14.4632 12.0218 14H3.75Z"/><path d="M3.75 19.5H11.3135C11.4858 20.0335 11.7253 20.5368 12.0218 21H3.75C3.33579 21 3 20.6642 3 20.25C3 19.8358 3.33579 19.5 3.75 19.5Z"/><path fill-rule="evenodd" clip-rule="evenodd" d="M23 17.5C23 20.5376 20.5376 23 17.5 23C14.4624 23 12 20.5376 12 17.5C12 14.4624 14.4624 12 17.5 12C20.5376 12 23 14.4624 23 17.5ZM20.8536 17.8536L18.8536 19.8536C18.6583 20.0488 18.3417 20.0488 18.1464 19.8536C17.9512 19.6583 17.9512 19.3417 18.1464 19.1464L19.2929 18H14.5C14.2239 18 14 17.7761 14 17.5C14 17.2239 14.2239 17 14.5 17H19.2929L18.1464 15.8536C17.9512 15.6583 17.9512 15.3417 18.1464 15.1464C18.3417 14.9512 18.6583 14.9512 18.8536 15.1464L20.8536 17.1464C21.0488 17.3417 21.0488 17.6583 20.8536 17.8536Z"/></svg>

<svg xmlns="http://www.w3.org/2000/svg" width="24" height="24" fill="currentColor" viewBox="0 0 24 24">
  <path d="M3 3.75A.75.75 0 0 1 3.75 3h16.5a.75.75 0 0 1 0 1.5H3.75A.75.75 0 0 1 3 3.75Zm0 5.5a.75.75 0 0 1 .75-.75h8.5a.75.75 0 0 1 0 1.5h-8.5A.75.75 0 0 1 3 9.25ZM3.75 14a.75.75 0 0 0 0 1.5h7.563a6.471 6.471 0 0 1 .709-1.5H3.75Zm0 5.5h7.563c.173.534.412 1.037.709 1.5H3.75a.75.75 0 0 1 0-1.5Z"/>
  <path fill-rule="evenodd" d="M23 17.5a5.5 5.5 0 1 1-11 0 5.5 5.5 0 0 1 11 0Zm-2.146.354-2 2a.5.5 0 0 1-.708-.708L19.293 18H14.5a.5.5 0 0 1 0-1h4.793l-1.147-1.146a.5.5 0 0 1 .708-.708l2 2a.5.5 0 0 1 0 .708Z" clip-rule="evenodd"/>
</svg>
